lib/brands/logos/behance.svg

<svg xmlns="http://www.w3.org/2000/svg" fill="none" aria-hidden="true" viewBox="0 0 242 50"><g id="Behance"><g id="Union"><path fill="#053EFF" fill-rule="evenodd" d="M35.8501 5.13945C34.2882 4.80119 32.5789 4.63733 30.6861 4.63733H12.0206V44.228H31.2093C32.9833 44.228 34.7151 44.0055 36.3838 43.562C38.0706 43.1185 39.5769 42.4375 40.8879 41.5085C42.1883 40.5884 43.2436 39.3947 44.0193 37.923C44.786 36.4692 45.1709 34.7419 45.1709 32.7334C45.1709 30.2574 44.5831 28.1437 43.3804 26.3788C42.1838 24.6258 40.3797 23.3916 37.9428 22.691C39.7318 21.8447 41.0713 20.7547 41.9823 19.4258C42.8873 18.0953 43.3398 16.4311 43.3398 14.4377C43.3398 12.5946 43.0362 11.0371 42.4333 9.79231C41.8154 8.5295 40.9525 7.52676 39.8491 6.77359C38.7291 6.01891 37.4031 5.46868 35.8501 5.13945ZM32.4842 37.2374C31.7159 37.4088 30.8996 37.4855 30.0397 37.4855H20.737V26.5832H30.2141C32.0903 26.5832 33.6162 27.0147 34.7602 27.8821C35.9013 28.7616 36.4755 30.2108 36.4755 32.2508C36.4755 33.2927 36.3072 34.1541 35.9554 34.817C35.6036 35.4875 35.121 36.0137 34.5377 36.3971C33.9544 36.797 33.2629 37.0661 32.4842 37.2374ZM33.3937 19.522C32.3804 20.2661 31.1026 20.633 29.5586 20.633H20.737V11.3813H28.8927C29.6639 11.3813 30.417 11.4355 31.1341 11.5768C31.8663 11.7016 32.4962 11.9346 33.0539 12.2713C33.6162 12.5946 34.0612 13.0576 34.3964 13.6484C34.7211 14.2392 34.8835 15.0014 34.8835 15.9215C34.8835 17.5812 34.3964 18.7914 33.3937 19.522Z" clip-rule="evenodd"/><path fill="#053EFF" fill-rule="evenodd" d="M62.6894 39.0851C60.481 39.0851 58.7762 38.5048 57.5976 37.3532C56.4145 36.2016 55.6478 34.0564 55.6478 31.7908H76.3338C76.4827 29.5659 76.3007 27.4416 75.7866 25.4076C75.2664 23.3721 74.4351 21.556 73.267 19.967C72.0974 18.3764 70.6106 17.1061 68.796 16.1695C66.9755 15.2179 64.8512 14.7519 62.4263 14.7519C60.23 14.7519 58.247 15.1412 56.4475 15.9185C54.6495 16.6972 53.1056 17.7631 51.8022 19.1146C50.5033 20.4586 49.5156 22.0611 48.8 23.9178C48.1009 25.7684 47.7416 27.7709 47.7416 29.9146C47.7416 32.1321 48.0874 34.1781 48.7714 36.0257C49.463 37.8824 50.4326 39.4639 51.6819 40.8019C52.9643 42.1338 54.4887 43.1561 56.3122 43.8852C58.1358 44.6038 60.1683 44.9707 62.4263 44.9707C65.6661 44.9707 68.4473 44.228 70.7263 42.7382C73.034 41.2559 74.7252 38.7919 75.8392 35.3417H68.9058C68.6367 36.2287 67.9421 37.0841 66.8011 37.8824C65.6495 38.6837 64.277 39.0851 62.6894 39.0851ZM62.1903 20.6961C64.1236 20.6961 65.7082 21.2568 66.6447 22.2927C67.5843 23.336 68.2714 24.8198 68.4593 26.8283H55.6478C55.6853 26.269 55.8056 25.6361 56.0071 24.9385C56.2085 24.223 56.5558 23.554 57.0639 22.9196C57.5735 22.2957 58.2425 21.765 59.0573 21.3395C59.8902 20.9081 60.932 20.6961 62.1903 20.6961Z" clip-rule="evenodd"/><path fill="#053EFF" d="M87.5172 4.63733V19.5656H87.6976C88.6973 17.9044 89.9617 16.6972 91.5161 15.9485C93.0676 15.1938 94.5814 14.821 96.0562 14.821C98.1594 14.821 99.8822 15.0976 101.228 15.6674C102.575 16.2477 103.641 17.0324 104.421 18.0532C105.186 19.0695 105.727 20.3097 106.044 21.771C106.356 23.2292 106.517 24.8378 106.517 26.6118V44.228H98.6044V28.0415C98.6044 25.6812 98.2361 23.9072 97.5024 22.7467C96.7673 21.5846 95.4624 21.0013 93.5802 21.0013C91.4515 21.0013 89.912 21.6462 88.9589 22.9195C87.9878 24.1929 87.5172 26.2886 87.5172 29.205V44.228H79.6081V4.63733H87.5172Z"/><path fill="#053EFF" fill-rule="evenodd" d="M115.228 16.8114C113.972 17.5496 112.939 18.5373 112.138 19.7565C111.311 20.9757 110.854 22.5106 110.739 24.3703H118.638C118.796 22.8128 119.307 21.6973 120.195 21.0193C121.06 20.3609 122.279 20.0181 123.82 20.0181C124.513 20.0181 125.163 20.0677 125.776 20.1564C126.379 20.2541 126.902 20.4375 127.366 20.7171C127.819 20.9968 128.189 21.3801 128.462 21.8777C128.735 22.3829 128.885 23.0594 128.885 23.9072C128.919 24.7281 128.674 25.3445 128.165 25.7684C127.646 26.1908 126.94 26.5246 126.057 26.7441C125.163 26.9696 124.161 27.1304 123.005 27.2432C121.852 27.3574 120.698 27.5048 119.511 27.6867C118.343 27.8686 117.165 28.1271 116.004 28.4398C114.833 28.7495 113.799 29.2246 112.898 29.856C111.983 30.4829 111.251 31.3293 110.687 32.3816C110.108 33.434 109.815 34.778 109.815 36.4106C109.815 37.8899 110.07 39.1707 110.567 40.2471C111.066 41.3175 111.75 42.2015 112.64 42.9141C113.525 43.6131 114.564 44.1303 115.734 44.464C116.921 44.7978 118.19 44.9707 119.552 44.9707C121.329 44.9707 123.059 44.7106 124.757 44.1979C126.467 43.6778 127.936 42.7668 129.189 41.4709C129.225 41.9534 129.289 42.424 129.382 42.881C129.474 43.3485 129.67 43.8852 129.906 44.228L137.949 44.2476C137.567 43.6612 137.162 42.7668 137.006 41.5746C136.868 40.393 136.789 39.1587 136.789 37.8598V22.9196C136.789 21.1757 136.394 19.7685 135.614 18.7297C134.844 17.6638 133.85 16.8475 132.631 16.2507C131.41 15.6569 130.065 15.2585 128.593 15.0555C127.097 14.8511 125.645 14.7519 124.209 14.7519C122.613 14.7519 121.04 14.9037 119.468 15.2269C117.889 15.5411 116.485 16.0658 115.228 16.8114ZM126.044 31.3293C126.603 31.2105 127.145 31.0737 127.636 30.9113C128.142 30.746 128.544 30.513 128.885 30.2108V33.1558C128.885 33.6023 128.838 34.1977 128.735 34.9358C128.655 35.6694 128.41 36.3971 128.004 37.1187C127.605 37.8403 126.968 38.4597 126.122 38.9783C125.271 39.494 124.077 39.751 122.529 39.751C121.905 39.751 121.296 39.7074 120.707 39.5902C120.126 39.4819 119.605 39.2865 119.16 39.0084C118.713 38.7303 118.373 38.3544 118.113 37.8734C117.861 37.3878 117.725 36.797 117.725 36.0964C117.725 35.3628 117.861 34.7419 118.113 34.2638C118.373 33.7873 118.713 33.3904 119.14 33.0732C119.552 32.7605 120.053 32.5124 120.624 32.326C121.185 32.1381 121.774 31.9938 122.363 31.878C122.981 31.7668 123.619 31.6811 124.238 31.6059C124.863 31.5277 125.466 31.439 126.044 31.3293Z" clip-rule="evenodd"/><path fill="#053EFF" d="M148.598 15.5697V19.5656H148.774C149.771 17.9044 151.056 16.6972 152.653 15.9485C154.236 15.1938 155.876 14.821 157.539 14.821C159.651 14.821 161.384 15.0976 162.724 15.6674C164.087 16.2477 165.147 17.0324 165.915 18.0532C166.703 19.0695 167.244 20.3097 167.56 21.771C167.879 23.2292 168.037 24.8378 168.037 26.6118V44.228H160.121V28.0415C160.121 25.6812 159.75 23.9072 159.012 22.7467C158.263 21.5846 156.972 20.8389 155.076 20.8389C152.934 20.8389 151.373 21.6462 150.414 22.9195C149.449 24.1929 148.971 26.2885 148.971 29.205V44.228H141.142V15.5697H148.598Z"/><path fill="#053EFF" d="M182.406 21.556C183.246 20.9757 184.291 20.6961 185.557 20.6961C188.923 20.6961 190.862 22.3287 191.373 25.6H199.094C198.972 23.7614 198.533 22.1528 197.765 20.8104C196.988 19.4679 195.973 18.3419 194.735 17.4383C193.499 16.5288 192.09 15.8508 190.524 15.4118C188.945 14.9819 187.311 14.7519 185.609 14.7519C183.283 14.7519 181.212 15.1412 179.399 15.9185C177.578 16.6972 176.039 17.7796 174.781 19.1717C173.51 20.5548 172.557 22.204 171.912 24.1072C171.264 26.018 170.938 28.0851 170.938 30.304C170.938 32.4463 171.29 34.4202 171.989 36.2182C172.704 38.0132 173.682 39.5571 174.941 40.856C176.201 42.1519 177.73 43.1561 179.531 43.8852C181.335 44.6038 183.291 44.9707 185.444 44.9707C189.253 44.9707 192.382 43.9619 194.825 41.973C197.259 39.9705 198.738 37.0661 199.26 33.2641H191.656C191.391 35.038 190.764 36.4542 189.751 37.508C188.733 38.5559 187.281 39.0851 185.385 39.0851C184.163 39.0851 183.133 38.8069 182.287 38.2492C181.436 37.6884 180.762 36.9789 180.256 36.1159C179.757 35.235 179.403 34.2683 179.173 33.1979C178.958 32.1215 178.838 31.0677 178.838 30.0274C178.838 28.951 178.958 27.8686 179.173 26.7756C179.403 25.6812 179.775 24.6815 180.311 23.778C180.847 22.8684 181.547 22.1348 182.406 21.556Z"/><path fill="#053EFF" d="M54.0377 7.29374H70.0859V11.2009H54.0377V7.29374Z"/><path fill="#053EFF" fill-rule="evenodd" d="M216.293 39.0851C214.068 39.0851 212.282 38.5048 211.098 37.3532C209.912 36.2016 209.156 34.0564 209.156 31.7908H229.932C230.078 29.5659 229.883 27.4416 229.375 25.4076C228.859 23.3721 228.019 21.556 226.851 19.967C225.69 18.3764 224.196 17.1061 222.377 16.1695C220.574 15.2179 218.441 14.7519 216.019 14.7519C213.835 14.7519 211.835 15.1412 210.034 15.9185C208.241 16.6972 206.71 17.7631 205.401 19.1146C204.109 20.4586 203.101 22.0611 202.391 23.9178C201.69 25.7684 201.339 27.7709 201.339 29.9146C201.339 32.1321 201.678 34.1781 202.362 36.0257C203.051 37.8824 204.019 39.4639 205.282 40.8019C206.558 42.1338 208.084 43.1561 209.905 43.8852C211.715 44.6038 213.755 44.9707 216.019 44.9707C219.271 44.9707 222.04 44.228 224.328 42.7382C226.621 41.2559 228.322 38.7919 229.43 35.3417H222.497C222.244 36.2287 221.535 37.0841 220.391 37.8824C219.247 38.6837 217.877 39.0851 216.293 39.0851ZM215.789 20.6961C217.698 20.6961 219.295 21.2568 220.243 22.2927C221.183 23.336 221.853 24.8198 222.064 26.8283H209.156C209.191 26.269 209.321 25.6361 209.508 24.9385C209.717 24.223 210.076 23.554 210.577 22.9196C211.077 22.2957 211.823 21.765 212.639 21.3395C213.487 20.9081 214.532 20.6961 215.789 20.6961Z" clip-rule="evenodd"/></g></g></svg>

<svg xmlns="http://www.w3.org/2000/svg" fill="none" aria-hidden="true" viewBox="0 0 242 50"><g fill="#053EFF"><path fill-rule="evenodd" d="M35.85 5.14c-1.562-.339-3.271-.503-5.164-.503H12.021v39.591h19.188c1.774 0 3.506-.223 5.175-.666 1.687-.444 3.193-1.124 4.504-2.053a10.1 10.1 0 0 0 3.131-3.586c.767-1.454 1.152-3.181 1.152-5.19 0-2.476-.588-4.59-1.79-6.354-1.197-1.753-3.001-2.987-5.438-3.688 1.789-.846 3.128-1.936 4.04-3.265.904-1.33 1.357-2.995 1.357-4.988 0-1.843-.304-3.4-.907-4.646-.618-1.262-1.48-2.265-2.584-3.018-1.12-.755-2.446-1.305-3.999-1.635Zm-3.366 32.097c-.768.172-1.584.248-2.444.248h-9.303V26.584h9.477c1.876 0 3.402.432 4.546 1.3 1.141.879 1.715 2.328 1.715 4.368 0 1.042-.168 1.903-.52 2.566a4.193 4.193 0 0 1-1.417 1.58c-.584.4-1.275.67-2.054.84Zm.91-17.715c-1.014.744-2.291 1.111-3.835 1.111h-8.822v-9.252h8.156c.77 0 1.524.054 2.241.196a5.414 5.414 0 0 1 1.92.694 3.594 3.594 0 0 1 1.342 1.377c.325.591.487 1.353.487 2.274 0 1.66-.487 2.87-1.49 3.6ZM62.69 39.085c-2.209 0-3.914-.58-5.092-1.732-1.184-1.151-1.95-3.297-1.95-5.562h20.686c.149-2.225-.033-4.35-.547-6.383-.52-2.036-1.352-3.852-2.52-5.441a12.693 12.693 0 0 0-4.471-3.797c-1.82-.952-3.945-1.418-6.37-1.418-2.196 0-4.179.39-5.979 1.166a14.228 14.228 0 0 0-4.645 3.197c-1.299 1.344-2.286 2.946-3.002 4.803-.7 1.85-1.058 3.853-1.058 5.997 0 2.217.345 4.263 1.03 6.11.691 1.857 1.66 3.439 2.91 4.777 1.282 1.332 2.807 2.354 4.63 3.083 1.824.719 3.856 1.086 6.114 1.086 3.24 0 6.021-.743 8.3-2.233 2.308-1.482 4-3.946 5.113-7.396h-6.933c-.27.887-.964 1.742-2.105 2.54-1.151.802-2.524 1.203-4.112 1.203Zm-.5-18.389c1.934 0 3.518.56 4.455 1.597.94 1.043 1.626 2.527 1.814 4.535H55.648c.037-.559.158-1.192.36-1.89a5.65 5.65 0 0 1 1.056-2.018c.51-.624 1.178-1.155 1.993-1.58.833-.432 1.875-.644 3.133-.644Z" clip-rule="evenodd"/><path d="M87.517 4.637v14.929h.18c1-1.662 2.265-2.869 3.82-3.617 1.55-.755 3.064-1.128 4.54-1.128 2.102 0 3.825.277 5.171.846 1.347.58 2.413 1.365 3.193 2.386.765 1.017 1.306 2.257 1.623 3.718.312 1.458.473 3.067.473 4.84v17.617h-7.913V28.041c0-2.36-.368-4.134-1.102-5.294C96.767 21.585 95.462 21 93.58 21c-2.129 0-3.668.645-4.621 1.918-.971 1.274-1.442 3.37-1.442 6.286v15.023h-7.909V4.638h7.91Z"/><path fill-rule="evenodd" d="M115.228 16.811a9.298 9.298 0 0 0-3.09 2.945c-.827 1.22-1.284 2.755-1.399 4.614h7.899c.158-1.557.669-2.673 1.557-3.35.865-.66 2.084-1.002 3.625-1.002.693 0 1.343.05 1.956.138a4.387 4.387 0 0 1 1.59.561c.453.28.823.663 1.096 1.16.273.506.423 1.182.423 2.03.034.821-.211 1.438-.72 1.861-.519.423-1.225.757-2.108.976-.894.226-1.896.386-3.052.5a65.765 65.765 0 0 0-3.494.443c-1.168.182-2.346.44-3.507.753-1.171.31-2.205.785-3.106 1.416-.915.627-1.647 1.473-2.211 2.526-.579 1.052-.872 2.396-.872 4.029 0 1.479.255 2.76.752 3.836a7.298 7.298 0 0 0 2.073 2.667c.885.7 1.924 1.216 3.094 1.55a14.02 14.02 0 0 0 3.818.507c1.777 0 3.507-.26 5.205-.773 1.71-.52 3.179-1.431 4.432-2.727.036.482.1.953.193 1.41.092.468.288 1.004.524 1.347l8.043.02c-.382-.587-.787-1.481-.943-2.673a31.93 31.93 0 0 1-.217-3.715V22.92c0-1.744-.395-3.152-1.175-4.19-.77-1.066-1.764-1.883-2.983-2.48-1.221-.593-2.566-.992-4.038-1.194a32.256 32.256 0 0 0-4.384-.304c-1.596 0-3.169.152-4.741.475-1.579.314-2.983.839-4.24 1.584Zm10.816 14.518a15.195 15.195 0 0 0 1.592-.418 3.448 3.448 0 0 0 1.249-.7v2.945c0 .446-.047 1.042-.15 1.78-.08.733-.325 1.461-.731 2.183-.399.721-1.036 1.34-1.882 1.86-.851.515-2.045.772-3.593.772a9.328 9.328 0 0 1-1.822-.16 4.438 4.438 0 0 1-1.547-.583 2.941 2.941 0 0 1-1.047-1.135c-.252-.485-.388-1.076-.388-1.777 0-.733.136-1.354.388-1.832a3.6 3.6 0 0 1 1.027-1.19 5.004 5.004 0 0 1 1.484-.748 14.01 14.01 0 0 1 1.739-.448 33.458 33.458 0 0 1 1.875-.272 29.087 29.087 0 0 0 1.806-.277Z" clip-rule="evenodd"/><path d="M148.598 15.57v3.996h.176c.997-1.662 2.282-2.869 3.879-3.617 1.583-.755 3.223-1.128 4.886-1.128 2.112 0 3.845.277 5.185.846 1.363.58 2.423 1.365 3.191 2.386.788 1.017 1.329 2.257 1.645 3.718.319 1.458.477 3.067.477 4.84v17.617h-7.916V28.041c0-2.36-.371-4.134-1.109-5.294-.749-1.162-2.04-1.908-3.936-1.908-2.142 0-3.703.807-4.662 2.08-.965 1.274-1.443 3.37-1.443 6.286v15.023h-7.829V15.57h7.456Zm33.808 5.986c.84-.58 1.885-.86 3.151-.86 3.366 0 5.305 1.633 5.816 4.904h7.721c-.122-1.839-.561-3.447-1.329-4.79a10.886 10.886 0 0 0-3.03-3.372c-1.236-.91-2.645-1.587-4.211-2.026a18.61 18.61 0 0 0-4.915-.66c-2.326 0-4.397.39-6.21 1.166-1.821.78-3.36 1.862-4.618 3.254-1.271 1.383-2.224 3.032-2.869 4.935-.648 1.911-.974 3.978-.974 6.197 0 2.142.352 4.116 1.051 5.914.715 1.795 1.693 3.34 2.952 4.638 1.26 1.296 2.789 2.3 4.59 3.03 1.804.718 3.76 1.085 5.913 1.085 3.809 0 6.938-1.01 9.381-2.998 2.434-2.002 3.913-4.907 4.435-8.709h-7.604c-.265 1.774-.892 3.19-1.905 4.244-1.018 1.048-2.47 1.577-4.366 1.577-1.222 0-2.252-.278-3.098-.836a6.397 6.397 0 0 1-2.031-2.133c-.499-.881-.853-1.848-1.083-2.918a16.169 16.169 0 0 1-.335-3.17c0-1.077.12-2.16.335-3.252.23-1.095.602-2.095 1.138-2.998a6.816 6.816 0 0 1 2.095-2.222ZM54.038 7.294h16.048V11.2H54.038V7.294Z"/><path fill-rule="evenodd" d="M216.293 39.085c-2.225 0-4.011-.58-5.195-1.732-1.186-1.151-1.942-3.297-1.942-5.562h20.776a20.603 20.603 0 0 0-.557-6.383c-.516-2.036-1.356-3.852-2.524-5.441-1.161-1.59-2.655-2.86-4.474-3.797-1.803-.952-3.936-1.418-6.358-1.418-2.184 0-4.184.39-5.985 1.166a14.288 14.288 0 0 0-4.633 3.197c-1.292 1.344-2.3 2.946-3.01 4.803-.701 1.85-1.052 3.853-1.052 5.997 0 2.217.339 4.263 1.023 6.11.689 1.857 1.657 3.439 2.92 4.777 1.276 1.332 2.802 2.354 4.623 3.083 1.81.719 3.85 1.086 6.114 1.086 3.252 0 6.021-.743 8.309-2.233 2.293-1.482 3.994-3.946 5.102-7.396h-6.933c-.253.887-.962 1.742-2.106 2.54-1.144.802-2.514 1.203-4.098 1.203Zm-.504-18.389c1.909 0 3.506.56 4.454 1.597.94 1.043 1.61 2.527 1.821 4.535h-12.908c.035-.559.165-1.192.352-1.89.209-.715.568-1.384 1.069-2.018.5-.624 1.246-1.155 2.062-1.58.848-.432 1.893-.644 3.15-.644Z" clip-rule="evenodd"/></g></svg>
